svg/us/va/richmond.svg

<?xml version="1.0" encoding="UTF-8" standalone="no"?>
<!-- Created with Inkscape (http://www.inkscape.org/) -->
<svg
   xmlns:dc="http://purl.org/dc/elements/1.1/"
   xmlns:cc="http://creativecommons.org/ns#"
   xmlns:rdf="http://www.w3.org/1999/02/22-rdf-syntax-ns#"
   xmlns:svg="http://www.w3.org/2000/svg"
   xmlns="http://www.w3.org/2000/svg"
   xmlns:sodipodi="http://sodipodi.sourceforge.net/DTD/sodipodi-0.dtd"
   xmlns:inkscape="http://www.inkscape.org/namespaces/inkscape"
   width="800"
   height="480"
   id="svg2"
   sodipodi:version="0.32"
   inkscape:version="0.46"
   version="1.0"
   sodipodi:docname="Flag of Richmond, Virginia.svg"
   inkscape:output_extension="org.inkscape.output.svg.inkscape">
  <defs
     id="defs4">
    <inkscape:perspective
       sodipodi:type="inkscape:persp3d"
       inkscape:vp_x="0 : 526.18109 : 1"
       inkscape:vp_y="0 : 1000 : 0"
       inkscape:vp_z="744.09448 : 526.18109 : 1"
       inkscape:persp3d-origin="372.04724 : 350.78739 : 1"
       id="perspective10" />
    <inkscape:perspective
       id="perspective2533"
       inkscape:persp3d-origin="372.04724 : 350.78739 : 1"
       inkscape:vp_z="744.09448 : 526.18109 : 1"
       inkscape:vp_y="0 : 1000 : 0"
       inkscape:vp_x="0 : 526.18109 : 1"
       sodipodi:type="inkscape:persp3d" />
    <inkscape:perspective
       id="perspective3598"
       inkscape:persp3d-origin="372.04724 : 350.78739 : 1"
       inkscape:vp_z="744.09448 : 526.18109 : 1"
       inkscape:vp_y="0 : 1000 : 0"
       inkscape:vp_x="0 : 526.18109 : 1"
       sodipodi:type="inkscape:persp3d" />
  </defs>
  <sodipodi:namedview
     id="base"
     pagecolor="#ffffff"
     bordercolor="#666666"
     borderopacity="1.0"
     gridtolerance="10000"
     guidetolerance="10"
     objecttolerance="10"
     inkscape:pageopacity="0.0"
     inkscape:pageshadow="2"
     inkscape:zoom="0.25"
     inkscape:cx="703.96306"
     inkscape:cy="97.618182"
     inkscape:document-units="px"
     inkscape:current-layer="layer1"
     showgrid="false"
     width="800px"
     inkscape:window-width="1280"
     inkscape:window-height="952"
     inkscape:window-x="-4"
     inkscape:window-y="-4"
     showguides="true"
     inkscape:guide-bbox="true">
    <inkscape:grid
       type="xygrid"
       id="grid2383"
       visible="true"
       enabled="true" />
    <sodipodi:guide
       orientation="1,0"
       position="0,533.08594"
       id="guide2469" />
    <sodipodi:guide
       orientation="1,0"
       position="800,-0.234375"
       id="guide2471" />
    <sodipodi:guide
       orientation="0,1"
       position="800.58203,0"
       id="guide2473" />
    <sodipodi:guide
       orientation="1,0"
       position="400,277.33594"
       id="guide2547" />
    <sodipodi:guide
       orientation="0,1"
       position="-8,480"
       id="guide2539" />
  </sodipodi:namedview>
  <metadata
     id="metadata7">
    <rdf:RDF>
      <cc:Work
         rdf:about="">
        <dc:format>image/svg+xml</dc:format>
        <dc:type
           rdf:resource="http://purl.org/dc/dcmitype/StillImage" />
      </cc:Work>
    </rdf:RDF>
  </metadata>
  <g
     inkscape:label="Layer 1"
     inkscape:groupmode="layer"
     id="layer1">
    <rect
       style="opacity:1;fill:#002673;fill-opacity:1;stroke:none;stroke-width:5;stroke-linecap:butt;stroke-linejoin:miter;stroke-miterlimit:4;stroke-dasharray:none;stroke-opacity:1"
       id="rect3517"
       width="800"
       height="480"
       x="0"
       y="0" />
    <path
       style="fill:#ffffff;fill-rule:evenodd;stroke:none;stroke-width:1px;stroke-linecap:butt;stroke-linejoin:miter;stroke-opacity:1"
       d="M 303.40625,85.5 C 300.73966,85.289369 297.00004,88.847463 298.78125,91.03125 L 324.78294,122.90963 C 325.94346,124.33244 326.99962,125.94636 327.00169,128.22213 C 327.00471,131.54515 330.69727,136.018 335.68919,137.87838 C 336.56623,138.20523 337.60028,138.57406 338.50169,139.65963 L 341.40794,143.15963 C 348.82944,152.09735 351.16709,160.3712 360.71115,169.08699 C 362.81634,171.00949 365.77131,173.05044 367.59375,175.28125 L 386.28125,198.15625 C 392.8369,206.1809 391.3893,212.87292 386.5625,217.8125 L 366.5,238.34375 C 363.53559,241.37742 361.30928,245.61849 361.5625,249.90625 L 361.81821,254.2362 C 362.0815,258.69447 361.15963,261.86143 360,261.28125 C 353.78433,258.17144 349.62525,259.43532 345.5,263.8125 L 329.125,281.1875 C 325.10864,285.44914 326.48544,290.11438 328.875,294.21875 L 343.59375,319.5 C 345.04263,321.98863 342.38154,328 337,328 L 322.75,328 C 319.61831,328 316.75769,325.49015 314.375,322.875 L 309.25,317.25 L 304,323.125 C 301.70628,325.69178 299.12436,328 295,328 L 288.875,328 C 286.191,328 281.76925,323.41287 280.375,321.25 C 278.81538,323.66287 275.19744,328 271.375,328 L 1.89e-06,328 L 1.89e-06,480 L 800,480 L 800,328 L 594.25,328 C 589.11869,328 585.20614,324.10366 579.875,318.875 C 573.7359,324.09214 571.77465,328 564.51562,328 C 554.31936,327.99999 550.99601,320.70632 547.89062,317.25 C 539.17128,325.40395 525.47438,328.76462 510.01562,328 L 502.26466,327.98861 L 438.67187,249.65625 C 436.02219,246.39242 432.93757,243.43824 437,237.28125 L 452.03125,214.5 C 455.37429,209.43331 454.29089,204.22452 450,197.9375 L 432.9375,172.9375 C 429.87407,168.44896 426.02221,166.68502 421.59375,165.8125 L 413.1875,164.15625 C 411.37526,163.79919 410.18162,162.33089 409.75,160.59375 C 408.55108,155.76859 413.6942,150.96091 413.4375,143.53125 C 413.17484,135.92933 409.41738,131.06521 403.125,130.78125 C 395.95335,130.4576 391.61339,135.45695 390.875,140.09375 C 389.51297,148.64677 394.09691,152.80839 393.0625,156.78125 C 392.6875,158.22151 391.27833,161.41446 388.21875,160.59375 L 372.22382,156.30321 C 370.04252,155.71809 368.09734,153.97368 366.50507,152.36571 C 360.38034,146.1806 352.78793,147.40138 346.23733,133.45777 C 343.3824,127.38077 341.7772,124.57143 337.79983,122.83277 C 335.80025,121.95868 334.35337,122.25481 333.26858,120.92652 L 305,86.3125 C 304.58062,85.798981 304.02162,85.548607 303.40625,85.5 z M 431.625,199.3125 C 432.4688,199.23604 433.32821,199.50531 433.9375,200.21875 L 437.59375,204.5 C 439.06995,206.22855 438.67178,208.40502 437.59375,210.40625 L 431.71875,221.3125 C 430.76885,223.07588 425.45823,222.65681 426.1875,217.875 L 428.65625,201.6875 C 428.84063,200.47855 430.21867,199.43993 431.625,199.3125 z M 403.875,245.40625 C 406.97115,245.30865 409.32412,246.95618 409.8125,249.6875 L 414.03125,273.28125 C 414.46212,275.69093 414.41165,277.47688 414.4375,279.375 C 414.4795,282.45909 411.52309,285.30875 408.40625,283.875 L 384.96875,273.09375 C 381.04712,271.2898 381.33399,266.9082 381.3621,265.12533 L 381.4375,260.34375 C 381.49573,256.6508 383.07308,252.76161 386.5625,251.4375 L 400.5625,246.125 C 401.71334,245.6883 402.84295,245.43878 403.875,245.40625 z M 437.75,262.46875 C 438.40146,262.46678 439.09244,262.80338 439.6875,263.53125 L 492.38387,327.98861 L 480.5,328 C 477.4738,328.0029 477.37251,324.64603 477.5,322 C 477.72984,317.22984 475.30879,315.37006 471.25,313.5 L 441,299.5625 C 437.95276,298.1585 436.07966,295.27619 435.77777,292.11043 L 435.09375,284.9375 C 434.90048,282.9108 434.62964,280.57311 434.84375,277.15625 L 435.59375,265.1875 C 435.70389,263.42978 436.66424,262.47204 437.75,262.46875 z"
       id="path2443"
       sodipodi:nodetypes="cssssssssssssssssszzzzczzzczccccscscccsssssssssssssssssssscssssssscsssssssssscscsssssssss" />
    <path
       style="fill:#c70f2e;fill-rule:evenodd;stroke:none;stroke-width:1px;stroke-linecap:butt;stroke-linejoin:miter;stroke-opacity:1;fill-opacity:1"
       d="M 506.73452,345.49219 L 528.25,371.875 C 530.46397,374.58982 536.57349,369.97252 534.1875,367.0625 L 516.50152,345.49219 L 800,345.49219 L 800,403.99609 L 0,403.99609 L 0,345.49219 L 506.73452,345.49219 z"
       id="path3408"
       sodipodi:nodetypes="cssc" />
    <rect
       style="opacity:1;fill:#c70f2e;fill-opacity:1;stroke:none;stroke-width:5;stroke-linecap:butt;stroke-linejoin:miter;stroke-miterlimit:4;stroke-dasharray:none;stroke-opacity:1"
       id="rect3427"
       width="800"
       height="58.5"
       x="0"
       y="421.5" />
    <path
       style="opacity:1;fill:#ffffff;fill-opacity:1;stroke:none;stroke-width:5;stroke-linecap:butt;stroke-linejoin:miter;stroke-miterlimit:4;stroke-opacity:1"
       d="M 399.99999,39.284302 L 403.80254,50.985896 L 416.10648,50.986362 L 406.15268,58.218804 L 409.95436,69.920685 L 399.99999,62.688991 L 390.04562,69.920685 L 393.8473,58.218804 L 383.8935,50.986359 L 396.19744,50.985896 L 399.99999,39.284302 z"
       id="path3475"
       inkscape:transform-center-y="-152.50809" />
    <path
       inkscape:transform-center-y="-75.94685"
       id="path3482"
       d="M 257.66248,121.71952 L 269.69764,124.27718 L 275.85002,113.62192 L 277.13657,125.85841 L 289.17154,128.41698 L 277.93153,133.42186 L 279.21717,145.65844 L 270.9839,136.51515 L 259.74348,141.51917 L 265.89506,130.86344 L 257.66248,121.71952 z"
       style="opacity:1;fill:#ffffff;fill-opacity:1;stroke:none;stroke-width:5;stroke-linecap:butt;stroke-linejoin:miter;stroke-miterlimit:4;stroke-opacity:1"
       inkscape:transform-center-x="129.15314" />
    <path
       inkscape:transform-center-x="152.5081"
       style="opacity:1;fill:#ffffff;fill-opacity:1;stroke:none;stroke-width:5;stroke-linecap:butt;stroke-linejoin:miter;stroke-miterlimit:4;stroke-opacity:1"
       d="M 235.20864,204.07568 L 246.9102,200.27313 L 246.9107,187.96919 L 254.14311,197.923 L 265.84499,194.12132 L 258.61332,204.07568 L 265.84499,214.03006 L 254.14311,210.22838 L 246.91068,220.18218 L 246.9102,207.87824 L 235.20864,204.07568 z"
       id="path3484" />
    <path
       id="path3486"
       d="M 257.66247,286.43184 L 265.89506,277.28793 L 259.7435,266.63219 L 270.98391,271.63624 L 279.21717,262.49294 L 277.93152,274.72951 L 289.17154,279.7344 L 277.13658,282.29297 L 275.85,294.52946 L 269.69763,283.87419 L 257.66247,286.43184 z"
       style="opacity:1;fill:#ffffff;fill-opacity:1;stroke:none;stroke-width:5;stroke-linecap:butt;stroke-linejoin:miter;stroke-miterlimit:4;stroke-opacity:1"
       inkscape:transform-center-x="129.15315"
       inkscape:transform-center-y="75.94686" />
    <path
       inkscape:transform-center-y="-129.15314"
       id="path3488"
       d="M 482.35616,61.738158 L 479.7985,73.773317 L 490.45378,79.925686 L 478.21727,81.212265 L 475.65871,93.247228 L 470.65383,82.007212 L 458.41725,83.292861 L 467.56055,75.05958 L 462.55652,63.819188 L 473.21225,69.970758 L 482.35616,61.738158 z"
       style="opacity:1;fill:#ffffff;fill-opacity:1;stroke:none;stroke-width:5;stroke-linecap:butt;stroke-linejoin:miter;stroke-miterlimit:4;stroke-opacity:1"
       inkscape:transform-center-x="-75.946854" />
    <path
       inkscape:transform-center-x="-129.15314"
       style="opacity:1;fill:#ffffff;fill-opacity:1;stroke:none;stroke-width:5;stroke-linecap:butt;stroke-linejoin:miter;stroke-miterlimit:4;stroke-opacity:1"
       d="M 542.33752,121.71952 L 534.10494,130.86343 L 540.25652,141.51917 L 529.01609,136.51514 L 520.78283,145.65844 L 522.06848,133.42186 L 510.82846,128.41698 L 522.86343,125.85841 L 524.15,113.62192 L 530.30236,124.27719 L 542.33752,121.71952 z"
       id="path3490"
       inkscape:transform-center-y="-75.94685" />
    <path
       inkscape:transform-center-x="75.946855"
       style="opacity:1;fill:#ffffff;fill-opacity:1;stroke:none;stroke-width:5;stroke-linecap:butt;stroke-linejoin:miter;stroke-miterlimit:4;stroke-opacity:1"
       d="M 317.64384,61.738158 L 326.78776,69.970748 L 337.4435,63.819197 L 332.43945,75.05958 L 341.58275,83.292861 L 329.34618,82.007212 L 324.34129,93.247228 L 321.78272,81.212265 L 309.54622,79.925686 L 320.2015,73.773324 L 317.64384,61.738158 z"
       id="path3498"
       inkscape:transform-center-y="-129.15314" />
    <path
       id="path3500"
       d="M 564.79136,204.07568 L 553.0898,207.87823 L 553.08932,220.18218 L 545.85688,210.22837 L 534.15501,214.03006 L 541.38668,204.07569 L 534.15501,194.12132 L 545.85689,197.923 L 553.08932,187.9692 L 553.08979,200.27314 L 564.79136,204.07568 z"
       style="opacity:1;fill:#ffffff;fill-opacity:1;stroke:none;stroke-width:5;stroke-linecap:butt;stroke-linejoin:miter;stroke-miterlimit:4;stroke-opacity:1"
       inkscape:transform-center-x="-152.5081" />
    <path
       inkscape:transform-center-x="-129.15315"
       style="opacity:1;fill:#ffffff;fill-opacity:1;stroke:none;stroke-width:5;stroke-linecap:butt;stroke-linejoin:miter;stroke-miterlimit:4;stroke-opacity:1"
       d="M 542.33753,286.43184 L 530.30237,283.87418 L 524.15,294.52946 L 522.86342,282.29296 L 510.82846,279.7344 L 522.06848,274.72952 L 520.78283,262.49294 L 529.0161,271.63624 L 540.25652,266.63221 L 534.10493,277.28794 L 542.33753,286.43184 z"
       id="path3502"
       inkscape:transform-center-y="75.946855" />
  </g>
</svg>

<svg xmlns="http://www.w3.org/2000/svg" width="800" height="480" version="1"><path fill="#002673" d="M0 0h800v480H0z"/><path d="M303.406 85.5c-2.666-.21-6.406 3.347-4.625 5.531l26.002 31.879c1.16 1.422 2.217 3.036 2.219 5.312.003 3.323 3.695 7.796 8.687 9.656.877.327 1.911.696 2.813 1.782l2.906 3.5c7.421 8.937 9.76 17.211 19.303 25.927 2.105 1.922 5.06 3.963 6.883 6.194l18.687 22.875c6.556 8.025 5.108 14.717.281 19.656L366.5 238.345c-2.964 3.033-5.19 7.274-4.938 11.562l.256 4.33c.264 4.458-.658 7.625-1.818 7.045-6.216-3.11-10.375-1.846-14.5 2.531l-16.375 17.375c-4.016 4.262-2.64 8.927-.25 13.032l14.719 25.281c1.449 2.489-1.212 8.5-6.594 8.5h-14.25c-3.132 0-5.992-2.51-8.375-5.125l-5.125-5.625-5.25 5.875c-2.294 2.567-4.876 4.875-9 4.875h-6.125c-2.684 0-7.106-4.587-8.5-6.75-1.56 2.413-5.178 6.75-9 6.75H0v152h800V328H594.25c-5.131 0-9.044-3.896-14.375-9.125-6.14 5.217-8.1 9.125-15.36 9.125-10.196 0-13.519-7.294-16.624-10.75-8.72 8.154-22.417 11.515-37.875 10.75l-7.751-.011-63.593-78.333c-2.65-3.264-5.734-6.218-1.672-12.375l15.031-22.781c3.343-5.067 2.26-10.275-2.031-16.563l-17.063-25c-3.063-4.488-6.915-6.252-11.343-7.125l-8.406-1.656c-1.813-.357-3.006-1.825-3.438-3.562-1.199-4.825 3.944-9.633 3.688-17.063-.263-7.602-4.02-12.466-10.313-12.75-7.172-.323-11.512 4.676-12.25 9.313-1.362 8.553 3.222 12.714 2.188 16.687-.375 1.44-1.785 4.633-4.844 3.813l-15.995-4.29c-2.181-.586-4.127-2.33-5.719-3.938-6.125-6.185-13.717-4.965-20.268-18.908-2.855-6.077-4.46-8.887-8.437-10.625-2-.874-3.447-.578-4.531-1.906L305 86.312c-.42-.513-.978-.763-1.594-.812zm128.219 113.813c.844-.077 1.703.192 2.313.906l3.656 4.281c1.476 1.729 1.078 3.905 0 5.906l-5.875 10.906c-.95 1.764-6.26 1.345-5.531-3.437l2.468-16.188c.185-1.208 1.563-2.247 2.969-2.375zm-27.75 46.093c3.096-.097 5.45 1.55 5.938 4.281l4.218 23.594c.431 2.41.38 4.196.406 6.094.042 3.084-2.914 5.934-6.03 4.5l-23.438-10.781c-3.922-1.804-3.635-6.186-3.607-7.969l.075-4.781c.059-3.693 1.636-7.582 5.125-8.906l14-5.313c1.151-.437 2.28-.686 3.313-.719zm33.875 17.063c.651-.002 1.342.334 1.938 1.062l52.696 64.458L480.5 328c-3.026.003-3.127-3.354-3-6 .23-4.77-2.191-6.63-6.25-8.5L441 299.562c-3.047-1.404-4.92-4.286-5.222-7.452l-.684-7.173c-.194-2.026-.464-4.364-.25-7.78l.75-11.97c.11-1.757 1.07-2.715 2.156-2.718z" fill="#fff" fill-rule="evenodd"/><path d="M506.735 345.492l21.515 26.383c2.214 2.715 8.323-1.902 5.938-4.813l-17.686-21.57H800v58.504H0v-58.504h506.735z" fill="#c70f2e" fill-rule="evenodd"/><path fill="#c70f2e" d="M0 421.5h800V480H0z"/><path d="M400 39.284l3.803 11.702h12.303l-9.953 7.233 3.801 11.702L400 62.689l-9.954 7.232 3.801-11.702-9.953-7.233h12.303L400 39.284zM257.662 121.72l12.036 2.557 6.152-10.655 1.287 12.236 12.035 2.559-11.24 5.005 1.285 12.236-8.233-9.143-11.24 5.004 6.151-10.656-8.233-9.143zM235.209 204.076l11.701-3.803V187.97l7.233 9.954 11.702-3.802-7.232 9.955 7.232 9.954-11.702-3.802-7.232 9.954v-12.304l-11.702-3.802zM257.662 286.432l8.233-9.144-6.151-10.656 11.24 5.004 8.233-9.143-1.285 12.237 11.24 5.004-12.035 2.559-1.287 12.236-6.152-10.655-12.036 2.558zM482.356 61.738l-2.558 12.035 10.656 6.153-12.237 1.286-2.558 12.035-5.005-11.24-12.237 1.286 9.144-8.233-5.004-11.24 10.655 6.15 9.144-8.232zM542.338 121.72l-8.233 9.143 6.152 10.656-11.24-5.004-8.234 9.143 1.285-12.236-11.24-5.005 12.035-2.559 1.287-12.236 6.152 10.655 12.036-2.557zM317.644 61.738l9.144 8.233 10.655-6.152-5.004 11.24 9.144 8.234-12.237-1.286-5.005 11.24-2.558-12.035-12.237-1.286 10.656-6.153-2.558-12.035zM564.791 204.076l-11.701 3.802v12.304l-7.233-9.954-11.702 3.802 7.232-9.954-7.232-9.955 11.702 3.802 7.232-9.954v12.304l11.702 3.803zM542.338 286.432l-12.036-2.558-6.152 10.655-1.287-12.236-12.035-2.559 11.24-5.004-1.285-12.237 8.233 9.143 11.24-5.004-6.151 10.656 8.233 9.144z" fill="#fff"/></svg>
